assets/icons/epiphany-logo.svg

<svg width="102" height="102" viewBox="0 0 102 102" fill="none" xmlns="http://www.w3.org/2000/svg">
<path d="M33.6338 55.3965C33.9203 55.3965 34.2026 55.4147 34.4795 55.4502C35.04 55.4999 35.5988 55.5838 36.1523 55.7051C38.632 56.2486 40.9047 57.4907 42.7012 59.2842C44.4977 61.0777 45.7433 63.3484 46.291 65.8271C46.3662 66.1674 46.4265 66.5101 46.4746 66.8535C46.5578 67.2716 46.6025 67.7039 46.6025 68.1465V95.4053C46.6025 99.0474 43.65 102 40.0078 102C36.3657 102 33.4131 99.0474 33.4131 95.4053V77.9863L21.0225 90.377C18.447 92.9524 14.2717 92.9524 11.6963 90.377C9.12097 87.8015 9.12089 83.6262 11.6963 81.0508L24.1602 68.5859H6.59473C2.95255 68.5859 0 65.6334 0 61.9912C0.000177808 58.3492 2.95266 55.3965 6.59473 55.3965H33.6338ZM95.4053 55.3965C99.0473 55.3965 102 58.3492 102 61.9912C102 65.6334 99.0474 68.5859 95.4053 68.5859H77.8398L90.3037 81.0508C92.8791 83.6262 92.879 87.8015 90.3037 90.377C87.7283 92.9524 83.553 92.9524 80.9775 90.377L68.5869 77.9863V95.4053C68.5869 99.0474 65.6343 102 61.9922 102C58.35 102 55.3975 99.0474 55.3975 95.4053V68.1465C55.3975 67.7039 55.4422 67.2716 55.5254 66.8535C55.5735 66.5101 55.6338 66.1674 55.709 65.8271C56.2567 63.3484 57.5023 61.0777 59.2988 59.2842C61.0953 57.4907 63.368 56.2486 65.8477 55.7051C66.4012 55.5838 66.96 55.4999 67.5205 55.4502C67.7974 55.4147 68.0797 55.3965 68.3662 55.3965H95.4053ZM51 0C64.526 1.02119e-06 77.4981 5.37315 87.0625 14.9375C94.8116 22.6866 99.8097 32.6727 101.428 43.3779C102.059 47.5555 98.5746 51 94.3496 51C90.1249 50.9998 86.7824 47.5363 85.8838 43.4082C84.4397 36.7735 81.1201 30.6318 76.2441 25.7559C69.5491 19.0608 60.4682 15.2998 51 15.2998C41.5318 15.2998 32.4509 19.0608 25.7559 25.7559C20.8799 30.6318 17.5603 36.7735 16.1162 43.4082C15.2176 47.5363 11.8751 50.9998 7.65039 51C3.42541 51 -0.0590908 47.5555 0.572266 43.3779C2.19025 32.6727 7.18838 22.6866 14.9375 14.9375C24.5019 5.37315 37.474 -1.47545e-09 51 0Z" fill="#8E9093"/>
</svg>

<svg fill="none" viewBox="0 0 102 102"><path fill="#8e9093" d="M33.634 55.397q.43 0 .846.053.841.074 1.672.255a13.3 13.3 0 0 1 10.323 11.148q.126.628.127 1.294v27.258a6.595 6.595 0 0 1-13.189 0V77.986l-12.39 12.391a6.595 6.595 0 1 1-9.327-9.326L24.16 68.586H6.595a6.595 6.595 0 1 1 0-13.19zm61.771 0a6.595 6.595 0 0 1 0 13.189H77.84L90.304 81.05a6.595 6.595 0 0 1-9.326 9.326l-12.391-12.39v17.418a6.595 6.595 0 0 1-13.19 0V68.147q.002-.665.128-1.294.073-.515.184-1.026A13.3 13.3 0 0 1 67.52 55.45q.416-.053.846-.053zM51 0a51 51 0 0 1 50.428 43.378C102.059 47.556 98.575 51 94.35 51s-7.568-3.464-8.466-7.592a35.7 35.7 0 0 0-69.768 0C15.218 47.536 11.876 51 7.65 51S-.06 47.556.572 43.378A51 51 0 0 1 51 0"/></svg>
